apps/statesvisited/state-images/AL.svg

<svg height="635" width="1182" xmlns="http://www.w3.org/2000/svg"><path d="m693.50032 357.18215s2.9398 23.09854 6.7196 31.49801c3.7797 8.39947 13.4391 23.51852 11.3393 26.45834-2.0999 2.93981-3.7798 3.35979-3.3598 7.55952.42 4.19974 2.0998 15.53902 2.0998 15.53902l-44.5172 7.55953 2.5199 13.01918s-3.7798 2.09986-5.4597.41997-3.7797-4.19974-3.7797-4.19974-1.2599 4.61971-3.3598 4.61971-4.1998-.83994-4.1998-.83994-3.3597-27.71826-3.3597-31.07805c0-3.35978-.84-65.51587-.84-65.51587z" fill="#f6d55c" fill-rule="evenodd" opacity=".9" stroke="#000"/></svg>

<?xml version="1.0" encoding="UTF-8" standalone="no"?>
<!-- Created with Inkscape (http://www.inkscape.org/) -->
<svg
   xmlns:dc="http://purl.org/dc/elements/1.1/"
   xmlns:cc="http://web.resource.org/cc/"
   xmlns:rdf="http://www.w3.org/1999/02/22-rdf-syntax-ns#"
   xmlns:svg="http://www.w3.org/2000/svg"
   xmlns="http://www.w3.org/2000/svg"
   xmlns:xlink="http://www.w3.org/1999/xlink"
   xmlns:sodipodi="http://sodipodi.sourceforge.net/DTD/sodipodi-0.dtd"
   xmlns:inkscape="http://www.inkscape.org/namespaces/inkscape"
   id="svg1923"
   sodipodi:version="0.32"
   inkscape:version="0.44"
   width="1182"
   height="635"
   version="1.0"
   sodipodi:docbase="/Users/amyshore/Desktop"
   sodipodi:docname="usa.svg">
  <metadata
     id="metadata1928">
    <rdf:RDF>
      <cc:Work
         rdf:about="">
        <dc:format>image/svg+xml</dc:format>
        <dc:type
           rdf:resource="http://purl.org/dc/dcmitype/StillImage" />
      </cc:Work>
    </rdf:RDF>
  </metadata>
  <defs
     id="defs1926" />
  <sodipodi:namedview
     inkscape:window-height="752"
     inkscape:window-width="1280"
     inkscape:pageshadow="2"
     inkscape:pageopacity="0.0"
     guidetolerance="10.0"
     gridtolerance="10.0"
     objecttolerance="10.0"
     borderopacity="1.0"
     bordercolor="#666666"
     pagecolor="#ffffff"
     id="base"
     inkscape:zoom="0.59527559"
     inkscape:cx="775.234"
     inkscape:cy="319.32597"
     inkscape:window-x="0"
     inkscape:window-y="22"
     inkscape:current-layer="layer2" />
  <g
     inkscape:groupmode="layer"
     id="layer1"
     inkscape:label="bg"
     style="opacity:1;display:none"
     sodipodi:insensitive="true">
    <image
       xlink:href="ElectoralCollege1996-Large.png"
       sodipodi:absref="/Users/amyshore/Desktop/ElectoralCollege1996-Large.png"
       width="1182"
       height="635"
       id="image1930"
       x="-1.3571358"
       y="1.6798911" />
  </g>
  <g
     inkscape:groupmode="layer"
     id="layer2"
     inkscape:label="vector"
     style="opacity:0.9;display:inline"> <path style="fill:#f6d55c;fill-opacity:1;fill-rule:evenodd;stroke:black;stroke-width:1px;stroke-linecap:butt;stroke-linejoin:miter;stroke-opacity:1" d="M 693.50032,357.18215 C 693.50032,357.18215 696.44012,380.28069 700.21992,388.68016 C 703.99962,397.07963 713.65902,412.19868 711.55922,415.1385 C 709.45932,418.07831 707.77942,418.49829 708.19942,422.69802 C 708.61942,426.89776 710.29922,438.23704 710.29922,438.23704 L 665.78202,445.79657 L 668.30192,458.81575 C 668.30192,458.81575 664.52212,460.91561 662.84222,459.23572 C 661.16232,457.55583 659.06252,455.03598 659.06252,455.03598 C 659.06252,455.03598 657.80262,459.65569 655.70272,459.65569 C 653.60282,459.65569 651.50292,458.81575 651.50292,458.81575 C 651.50292,458.81575 648.14322,431.09749 648.14322,427.7377 C 648.14322,424.37792 647.30322,362.22183 647.30322,362.22183 L 693.50032,357.18215 z " id="path4595" />   </g>
</svg>
